X: 22
T: Missa Ferialis / Sanctus
N: Derived from Mar1006b-Missa_Ferialis-Sanctus.krn
C: Johannes Martini
%%abc-version 2.0
%%abcx-abcm2ps-target-version 5.9.1 (29 Sep 2008)
%%abc-creator hum2abc beta
%%abcx-conversion-date 2019/02/17 07:19:41
%%abc-edited-by Jesse Rodin
%%abc-edited-by Chris Gage 10-02-2014
%%abcx-initial-encoding-date 2014/10/25/
%%humdrum-veritas 1514665455
%%humdrum-veritas-data 902159044
%%linebreak <none>
%%barnumbers 0
L: 1/4
M: 2/1
Q: 1/2=120
%%staves [1 2 3 4]
V: 1 clef=treble
V: 2 clef=treble-8
V: 3 clef=treble-8
V: 4 clef=bass
K: C
[V:1] A8- | 
[V:2] e8 | 
[V:3] A8- | 
[V:4] A,,8- | 
[V:1] A8 | 
[V:2] c8 | 
[V:3] A8- | 
[V:4] A,,8 | 
[V:1] F8 | 
[V:2] d8 | 
[V:3] A8- | 
[V:4] D,8 | 
[V:1] E4A4- | 
[V:2] z4c4 | 
[V:3] A8- | 
[V:4] C,4F,4- | 
[V:1] A2G2G4 | 
[V:2] d4e4 | 
[V:3] A8- | 
[V:4] F,2E,2C,4 | 
[V:1] ^F6E2 | 
[V:2] d8 | 
[V:3] A8 | 
[V:4] D,8 | 
[V:1] G8 | 
[V:2] B8 | 
[V:3] G8- | 
[V:4] E,8 | 
[V:1] c8 | 
[V:2] e8 | 
[V:3] G8- | 
[V:4] C,8 | 
[V:1] d8 | 
[V:2] d6c2 | 
[V:3] G8 | 
[V:4] B,,8 | 
[V:1] c4A4- | 
[V:2] e4d2f2- | 
[V:3] A8- | 
[V:4] A,,4D,4- | 
[V:1] A2B2c4 | 
[V:2] f2ede4 | 
[V:3] A8- | 
[V:4] D,4C,4 | 
[V:1] F4E4 | 
[V:2] d4c4 | 
[V:3] A8- | 
[V:4] D,4A,,4 | 
[V:1] D4F4 | 
[V:2] A4d4- | 
[V:3] A8 | 
[V:4] D,8 | 
[V:1] G4E4- | 
[V:2] d4G4 | 
[V:3] G8- | 
[V:4] B,,4C,4- | 
[V:1] E2F2G4 | 
[V:2] c4B2c2 | 
[V:3] G8 | 
[V:4] C,2D,2E,4 | 
[V:1] F4_B4- | 
[V:2] d8- | 
[V:3] z8 | 
[V:4] D,4G,4- | 
[V:1] B2A2A4- | 
[V:2] d4c4 | 
[V:3] z8 | 
[V:4] G,4A,4 | 
[V:1] A4^G4 | 
[V:2] B8 | 
[V:3] z8 | 
[V:4] E,8 | 
[V:1] A8- | 
[V:2] (3A6B2c4 | 
[V:3] F8- | 
[V:4] z8 | 
[V:1] A4G2F2 | 
[V:2] (3d4A4B4 | 
[V:3] F8 | 
[V:4] D,8 | 
[V:1] E8 | 
[V:2] c8 | 
[V:3] G8 | 
[V:4] C,8 | 
[V:1] z8 | 
[V:2] d4c4 | 
[V:3] G4A4- | 
[V:4] B,,4A,,4 | 
[V:1] A8 | 
[V:2] f4e4- | 
[V:3] A2G2A4 | 
[V:4] D,4C,4 | 
[V:1] d8 | 
[V:2] e2d2d3c | 
[V:3] B4G4 | 
[V:4] B,,8 | 
[V:1] c4d4 | 
[V:2] e4f4- | 
[V:3] A8- | 
[V:4] A,,4D,4- | 
[V:1] A8 | 
[V:2] f2e2d4- | 
[V:3] A8 | 
[V:4] D,4F,4 | 
[V:1] G8 | 
[V:2] d2^cB^c4 | 
[V:3] z8 | 
[V:4] E,8 | 
[V:1] F8 | 
[V:2] d8 | 
[V:3] A8- | 
[V:4] D,8 | 
[V:1] E4C4 | 
[V:2] e4g4- | 
[V:3] A4G4- | 
[V:4] C,8 | 
[V:1] D8 | 
[V:2] g2f2d3c | 
[V:3] G8 | 
[V:4] B,,8 | 
[V:1] C3DE2F2 | 
[V:2] e4c4 | 
[V:3] A8 | 
[V:4] A,,8- | 
[V:1] E2F2G2A2- | 
[V:2] A4e4- | 
[V:3] c8 | 
[V:4] A,,8 | 
[V:1] A2^G^FG4 | 
[V:2] e2d2e4 | 
[V:3] B8 | 
[V:4] E,8 | 
[V:1] A8 | 
[V:2] c6e2- | 
[V:3] A8 | 
[V:4] F,4A,4- | 
[V:1] E8 | 
[V:2] e2dcB4 | 
[V:3] z8 | 
[V:4] A,4G,4 | 
[V:1] F4A4- | 
[V:2] A2d3ef2- | 
[V:3] z8 | 
[V:4] F,4D,4 | 
[V:1] A4G4 | 
[V:2] f2edc4 | 
[V:3] z8 | 
[V:4] E,8 | 
[V:1] F8 | 
[V:2] d3cA2d2- | 
[V:3] z8 | 
[V:4] D,4F,4 | 
[V:1] E8 | 
[V:2] d2^c2^c3B | 
[V:3] z8 | 
[V:4] G,4A,4 | 
[V:1] D8 | 
[V:2] d8 | 
[V:3] F8 | 
[V:4] D,4z2D,2 | 
[V:1] z8 | 
[V:2] z8 | 
[V:3] G8- | 
[V:4] B,,2C,3D,E,2- | 
[V:1] z8 | 
[V:2] z8 | 
[V:3] G8 | 
[V:4] E,2D,C,B,,4 | 
[V:1] F8 | 
[V:2] z4d4 | 
[V:3] A8 | 
[V:4] A,,2D,3C,D,2 | 
[V:1] G8- | 
[V:2] B2c2d2e2- | 
[V:3] z8 | 
[V:4] E,2C,2B,,2C,2- | 
[V:1] G8 | 
[V:2] edc2B4 | 
[V:3] z8 | 
[V:4] C,D,E,3F,G,2 | 
[V:1] A8- | 
[V:2] A2d4c2 | 
[V:3] z8 | 
[V:4] F,3G,A,4 | 
[V:1] A8- | 
[V:2] d2e2f4 | 
[V:3] z8 | 
[V:4] D,2z2A,,2D,2- | 
[V:1] A8- | 
[V:2] e4d4 | 
[V:3] z8 | 
[V:4] D,2C,2D,2E,2 | 
[V:1] A8 | 
[V:2] z8 | 
[V:3] A,2D4C2 | 
[V:4] F,4E,4 | 
[V:1] z8 | 
[V:2] z8 | 
[V:3] D3EF4 | 
[V:4] D,2F,3E,D,2- | 
[V:1] z8 | 
[V:2] z8 | 
[V:3] E4D4 | 
[V:4] D,2^C,2D,4 | 
[V:1] A6G2 | 
[V:2] d6e2 | 
[V:3] z8 | 
[V:4] z8 | 
[V:1] A2B2c4 | 
[V:2] f2g2e2a2- | 
[V:3] z8 | 
[V:4] z8 | 
[V:1] B4A4 | 
[V:2] a2g2f2ed | 
[V:3] z8 | 
[V:4] z8 | 
[V:1] D2A4G2 | 
[V:2] f4e4 | 
[V:3] z8 | 
[V:4] z8 | 
[V:1] A2c4B2- | 
[V:2] A4e4 | 
[V:3] z8 | 
[V:4] z8 | 
[V:1] B2A4^G2 | 
[V:2] d2c2B4 | 
[V:3] z8 | 
[V:4] z8 | 
[V:1] A4z4 | 
[V:2] A4B2c2 | 
[V:3] z8 | 
[V:4] D,2F,2G,2A,2 | 
[V:1] z8 | 
[V:2] d2f4e2- | 
[V:3] z8 | 
[V:4] _B,4A,4 | 
[V:1] z8 | 
[V:2] e2d4^c2 | 
[V:3] z8 | 
[V:4] G,2F,2E,4 | 
[V:1] A6B2 | 
[V:2] d8 | 
[V:3] F8 | 
[V:4] D,8 | 
[V:1] c4A4 | 
[V:2] e4d4- | 
[V:3] E4F4 | 
[V:4] C,4D,4 | 
[V:1] B4d4 | 
[V:2] d2c2d4 | 
[V:3] G8 | 
[V:4] B,,8 | 
[V:1] c4A4 | 
[V:2] e4f4 | 
[V:3] A8 | 
[V:4] A,,4D,4 | 
[V:1] c6BA | 
[V:2] g2e4d2 | 
[V:3] z8 | 
[V:4] C,4F,4 | 
[V:1] G8 | 
[V:2] e4z4 | 
[V:3] c8 | 
[V:4] E,8 | 
[V:1] F4A4- | 
[V:2] A2d3efg | 
[V:3] d8- | 
[V:4] D,4F,4- | 
[V:1] A2B2c4 | 
[V:2] a2g4^f2 | 
[V:3] d4c4 | 
[V:4] F,2G,2A,4 | 
[V:1] B3Ad4 | 
[V:2] g2fed4 | 
[V:3] d8 | 
[V:4] G,4B,4 | 
[V:1] c4B4- | 
[V:2] z4g4- | 
[V:3] e8 | 
[V:4] A,4G,4- | 
[V:1] B2A2A4- | 
[V:2] g2f2e4- | 
[V:3] d4c4 | 
[V:4] G,4A,4 | 
[V:1] A2^G2G3^F | 
[V:2] e2dcB4 | 
[V:3] B8 | 
[V:4] E,8 | 
[V:1] A8 | 
[V:2] c8 | 
[V:3] A8- | 
[V:4] A,,4C,4- | 
[V:1] z8 | 
[V:2] c4B4- | 
[V:3] A4G4 | 
[V:4] C,2D,2E,2F,2 | 
[V:1] D4G4 | 
[V:2] B2c2d4- | 
[V:3] _B8 | 
[V:4] G,8 | 
[V:1] A4F4 | 
[V:2] d2c2d4 | 
[V:3] A8 | 
[V:4] D,4F,4 | 
[V:1] G6c2- | 
[V:2] e6d2 | 
[V:3] G8- | 
[V:4] E,4C,4- | 
[V:1] c2BAG3F | 
[V:2] c4B4 | 
[V:3] G8 | 
[V:4] C,2D,2E,4 | 
[V:1] A4A2F2- | 
[V:2] d4c4 | 
[V:3] F8 | 
[V:4] D,4A,4- | 
[V:1] F2E2D4- | 
[V:2] f8 | 
[V:3] z8 | 
[V:4] A,2G,2F,2G,A, | 
[V:1] D2B,2^C4 | 
[V:2] d4g4 | 
[V:3] z8 | 
[V:4] _B,A,G,F,E,4 | 
[V:1] D8 | 
[V:2] f6d2- | 
[V:3] z8 | 
[V:4] D,8- | 
[V:1] F8 | 
[V:2] d2cBA2d2- | 
[V:3] z8 | 
[V:4] D,8 | 
[V:1] G8 | 
[V:2] d2cBcBAG | 
[V:3] z8 | 
[V:4] E,8 | 
[V:1] A8 | 
[V:2] F2d3ef2 | 
[V:3] F8 | 
[V:4] D,8 | 
[V:1] z4G4 | 
[V:2] e2g3fed | 
[V:3] G8 | 
[V:4] E,8 | 
[V:1] E4F4- | 
[V:2] c8 | 
[V:3] A8 | 
[V:4] A,,8 | 
[V:1] F2E2E4- | 
[V:2] z4c4 | 
[V:3] G4E4 | 
[V:4] C,8 | 
[V:1] E2DCD4 | 
[V:2] A3FA2B2 | 
[V:3] F8 | 
[V:4] D,8 | 
[V:1] E4z2E2 | 
[V:2] c4B4 | 
[V:3] E2A4G2 | 
[V:4] A,,4E,4 | 
[V:1] F2A4G2 | 
[V:2] A4z4 | 
[V:3] A4B4 | 
[V:4] A,,4E,4 | 
[V:1] A4B4 | 
[V:2] c2d4e2 | 
[V:3] A4z4 | 
[V:4] F,4G,4 | 
[V:1] A2d4^c2 | 
[V:2] f2a3ge2 | 
[V:3] d4e4 | 
[V:4] D,4A,4 | 
[V:1] d2A2c2B2- | 
[V:2] f4e2g2- | 
[V:3] d4c2d2- | 
[V:4] D,4A,2G,2- | 
[V:1] BAA4^G2 | 
[V:2] gfd2e4 | 
[V:3] dcA2B4 | 
[V:4] G,2F,2E,4 | 
[V:1] A2c3BA2- | 
[V:2] c3de2c2 | 
[V:3] A8 | 
[V:4] F,3E,C,2F,2- | 
[V:1] AGE2F2ED | 
[V:2] d2e2A2d2 | 
[V:3] A8- | 
[V:4] F,E,C,2D,2C,B,, | 
[V:1] C2c3BA2- | 
[V:2] e4e2f2- | 
[V:3] A8 | 
[V:4] A,,6D,2- | 
[V:1] AGFEF4 | 
[V:2] fedcd4 | 
[V:3] A8- | 
[V:4] D,4D,4 | 
[V:1] E8 ||  
[V:2] c8 ||  
[V:3] A8 ||  
[V:4] A,,8 ||  
[V:1]  [K:C] [K:clef=treble][M:2/1]F8- | 
[V:2]  [K:C] [K:clef=treble-8][M:2/1]z8 | 
[V:3]  [K:C] [K:clef=treble-8][M:2/1]D4F4- | 
[V:4]  [K:C] [K:clef=bass][M:2/1]z4D,4 | 
[V:1] F8- | 
[V:2] z8 | 
[V:3] F2G2A4 | 
[V:4] F,6G,2 | 
[V:1] F8- | 
[V:2] z8 | 
[V:3] D4d4- | 
[V:4] A,4D,4 | 
[V:1] F8 | 
[V:2] z8 | 
[V:3] d2cBA4 | 
[V:4] _B,,2C,2D,4 | 
[V:1] G8- | 
[V:2] z8 | 
[V:3] G2c4B2 | 
[V:4] E,2C,4D,2 | 
[V:1] G8 | 
[V:2] z8 | 
[V:3] c2d2B4 | 
[V:4] E,2F,2G,4 | 
[V:1] A8- | 
[V:2] z8 | 
[V:3] A2c3BA2- | 
[V:4] F,2E,D,C,2D,2- | 
[V:1] A8- | 
[V:2] z8 | 
[V:3] AGF2E4 | 
[V:4] D,A,,D,4^C,2 | 
[V:1] A8 | 
[V:2] d4e4 | 
[V:3] D4A4 | 
[V:4] D,4A,,4 | 
[V:1] A8 | 
[V:2] f4d2f2- | 
[V:3] z2d4cB | 
[V:4] D,4F,3G, | 
[V:1] A8- | 
[V:2] fed2e4 | 
[V:3] c2d4^c2 | 
[V:4] A,2_B,2A,4 | 
[V:1] A8 | 
[V:2] z2d4cB | 
[V:3] d4z4 | 
[V:4] D,2F,3G,A,2- | 
[V:1] z8 | 
[V:2] c2d4^c2 | 
[V:3] z8 | 
[V:4] A,2G,F,E,4 | 
[V:1] z8 | 
[V:2] d2A2c2B2- | 
[V:3] z8 | 
[V:4] D,2F,3E,D,C, | 
[V:1] z8 | 
[V:2] BAA4^G2 | 
[V:3] z8 | 
[V:4] D,2A,,2B,,4 | 
[V:1] A8 | 
[V:2] A2c3de2 | 
[V:3] A8 | 
[V:4] A,,4z4 | 
[V:1] A8 | 
[V:2] fedcd4 | 
[V:3] F8 | 
[V:4] z8 | 
[V:1] G8 | 
[V:2] z4e4 | 
[V:3] E6F2 | 
[V:4] z8 | 
[V:1] _B8 | 
[V:2] d6g2- | 
[V:3] G8 | 
[V:4] z8 | 
[V:1] A8 | 
[V:2] g2^fe^f4 | 
[V:3] D8 | 
[V:4] z8 | 
[V:1] G8- | 
[V:2] g2G3ABc | 
[V:3] z8 | 
[V:4] E,6D,C, | 
[V:1] G8 | 
[V:2] d2e3dB2 | 
[V:3] z8 | 
[V:4] B,,2C,3D,E,2 | 
[V:1] A8 | 
[V:2] A2d3cd2 | 
[V:3] z4A4 | 
[V:4] F,2D,3E,F,2 | 
[V:1] G8 | 
[V:2] ed^cB^c4 | 
[V:3] B4G4 | 
[V:4] G,F,E,D,E,4 | 
[V:1] F8 | 
[V:2] d4f4- | 
[V:3] A4D2F2- | 
[V:4] D,2F,3E,D,2- | 
[V:1] z8 | 
[V:2] f2edc4 | 
[V:3] FGA4F2- | 
[V:4] D,2C,B,,A,,2A,2- | 
[V:1] z8 | 
[V:2] d4e4 | 
[V:3] FED4^C2 | 
[V:4] A,2F,2E,4 | 
[V:1] D2F3GA2 | 
[V:2] A4d4 | 
[V:3] D4z4 | 
[V:4] D,4z4 | 
[V:1] _B2A4GF | 
[V:2] d2f4ed | 
[V:3] z8 | 
[V:4] z8 | 
[V:1] E4D2F2- | 
[V:2] c4d4- | 
[V:3] z8 | 
[V:4] z8 | 
[V:1] F2EDC2D2 | 
[V:2] d2cBA2B2 | 
[V:3] z8 | 
[V:4] z8 | 
[V:1] F2E4D2 | 
[V:2] A3Bc2d2- | 
[V:3] z8 | 
[V:4] z8 | 
[V:1] F2G2A4 | 
[V:2] d2B2c2d2 | 
[V:3] z8 | 
[V:4] z8 | 
[V:1] G2A2c2B2- | 
[V:2] e2f2e4 | 
[V:3] z8 | 
[V:4] z8 | 
[V:1] BAA4^G2 | 
[V:2] d2c2B4 | 
[V:3] z8 | 
[V:4] z8 | 
[V:1] A4B2A2- | 
[V:2] A2d4c2 | 
[V:3] z8 | 
[V:4] z8 | 
[V:1] AGFED2G2- | 
[V:2] d3ef2e2- | 
[V:3] z8 | 
[V:4] z8 | 
[V:1] G2F2E2D2 | 
[V:2] ecd2c2B2 | 
[V:3] z8 | 
[V:4] z8 | 
[V:1] F4E4 | 
[V:2] A2d4^c2 | 
[V:3] z8 | 
[V:4] z8 | 
[V:1] D8 | 
[V:2] d8 | 
[V:3] D4F4 | 
[V:4] D,8 | 
[V:1] E4F4 | 
[V:2] G4d4 | 
[V:3] E4A4- | 
[V:4] C,4D,4 | 
[V:1] G8 | 
[V:2] c2BAB4 | 
[V:3] A4G4 | 
[V:4] E,8 | 
[V:1] E4A4 | 
[V:2] A2c3de2- | 
[V:3] c8 | 
[V:4] A,,8 | 
[V:1] G4A2B2- | 
[V:2] efg2f2d2- | 
[V:3] B8- | 
[V:4] E,4F,2G,2- | 
[V:1] BAA4^G2 | 
[V:2] def2e4 | 
[V:3] B8 | 
[V:4] G,F,D,2E,4 | 
[V:1] A8 | 
[V:2] c4d2f2- | 
[V:3] A8- | 
[V:4] A,,4D,4- | 
[V:1] z4A4 | 
[V:2] f2edc2d2- | 
[V:3] A8 | 
[V:4] D,2E,2F,4 | 
[V:1] B4c4 | 
[V:2] d2e3Bc2 | 
[V:3] z8 | 
[V:4] G,4A,4 | 
[V:1] F4G2A2- | 
[V:2] d4e4 | 
[V:3] A8- | 
[V:4] D,4C,2A,,2- | 
[V:1] AGFEE4- | 
[V:2] c8 | 
[V:3] A4G4 | 
[V:4] A,,2A,,2C,4 | 
[V:1] E2D2D2C2 | 
[V:2] A4B4 | 
[V:3] F8 | 
[V:4] D,8 | 
[V:1] E2G3AB2 | 
[V:2] c4B4 | 
[V:3] E8 | 
[V:4] C,4z2G,2- | 
[V:1] G2c4B2- | 
[V:2] e4c2d2 | 
[V:3] z8 | 
[V:4] G,2A,4G,2- | 
[V:1] B2A4^G2 | 
[V:2] e2A2B4 | 
[V:3] z8 | 
[V:4] G,2F,2E,4 | 
[V:1] A4D2A2- | 
[V:2] A4d4- | 
[V:3] D8 | 
[V:4] F,6D,2 | 
[V:1] A2GABAGF | 
[V:2] d2c2B2AB | 
[V:3] F8 | 
[V:4] D,8 | 
[V:1] E4D2G2- | 
[V:2] c4B4- | 
[V:3] G8 | 
[V:4] C,4D,2E,2- | 
[V:1] G2A2B4 | 
[V:2] B2c2d3B | 
[V:3] G8 | 
[V:4] E,2D,C,B,,4 | 
[V:1] c4c2A2- | 
[V:2] e4f4 | 
[V:3] A8 | 
[V:4] A,,6D,2- | 
[V:1] AGFEF2E2 | 
[V:2] e4d2c2 | 
[V:3] A8- | 
[V:4] D,2C,2D,2A,,2 | 
[V:1] D2F2G2A2- | 
[V:2] d2A2c4 | 
[V:3] A8- | 
[V:4] D,4C,2F,2- | 
[V:1] ABc2B2A2- | 
[V:2] d2e2f2d2- | 
[V:3] A8- | 
[V:4] F,E,C,2D,2F,2- | 
[V:1] AGG4^F2 | 
[V:2] d2c2d4 | 
[V:3] A8 | 
[V:4] F,2E,2D,4 | 
[V:1] G8 |]  
[V:2] d8 |]  
[V:3] G8 |]  
[V:4] G,,8 |]  



